src/components/00-materials/images-raw/Employee Retired.svg

<svg width="96" height="96" viewBox="0 0 96 96" fill="none" xmlns="http://www.w3.org/2000/svg">
<path d="M64 39.9999H85V44.9999H64V39.9999ZM52.29 28.7199C49.13 28.7199 46.09 26.1699 44.87 23.1799C42.87 27.4999 40.5 30.9299 34.49 30.9299H28.49V39.7899C28.49 47.1299 32.86 53.0799 40.49 53.0799C48.12 53.0799 52.49 47.1299 52.49 39.7899V28.7199H52.29Z" stroke="#00008F" stroke-width="2" stroke-linecap="round" stroke-linejoin="round"/>
<path d="M52.52 40.8999C54.2761 39.648 55.6953 37.9813 56.6514 36.0481C57.6075 34.115 58.0708 31.9754 58 29.8199V23.1799C58.004 22.6021 57.8941 22.0292 57.6766 21.4938C57.4591 20.9585 57.1383 20.4712 56.7325 20.0598C56.3267 19.6485 55.8439 19.3211 55.3115 19.0963C54.7792 18.8716 54.2078 18.7539 53.63 18.7499C52.2352 16.358 50.2297 14.3799 47.8189 13.0181C45.4081 11.6563 42.6786 10.9598 39.91 10.9999H38.61C36.5474 11.0117 34.5073 11.4298 32.6064 12.2304C30.7054 13.0309 28.9808 14.1982 27.5312 15.6655C26.0815 17.1328 24.9352 18.8713 24.1577 20.7818C23.3802 22.6924 22.9868 24.7373 23 26.7999V29.5199C23 33.7999 25.18 38.6799 28.46 40.8999M32.85 50.4199V56.3999L23.36 57.8699C19.9563 58.3422 16.8356 60.0218 14.5668 62.6027C12.298 65.1836 11.0321 68.4938 11 71.9299V77.0999C11.0077 78.141 11.3801 79.1463 12.0525 79.9411C12.7249 80.7359 13.6546 81.2698 14.68 81.4499L26.78 83.7199C35.8467 85.4306 45.1533 85.4306 54.22 83.7199L66.32 81.4499C67.3454 81.2698 68.2751 80.7359 68.9475 79.9411C69.6199 79.1463 69.9923 78.141 70 77.0999V71.9299C69.9679 68.4938 68.702 65.1836 66.4332 62.6027C64.1644 60.0218 61.0437 58.3422 57.64 57.8699L48.15 56.3999V50.4199" stroke="#00008F" stroke-width="2" stroke-linecap="round" stroke-linejoin="round"/>
<path d="M40.5 62.9099L48.15 56.3999L51.55 56.9499L49.24 67.4699L40.5 62.9099ZM40.5 62.9099L31.76 67.4699L29.45 56.9499L32.85 56.3999L40.5 62.9099ZM36.13 65.2599L38.31 69.6799M38.31 69.6799L36.01 84.8599M38.31 69.6799H42.69M44.87 65.2599L42.69 69.6799M42.69 69.6799L44.99 84.8599M23.02 77.2699V82.9799M57.98 77.2699V82.9799" stroke="#00008F" stroke-width="2" stroke-linecap="round" stroke-linejoin="round"/>
</svg>

<svg width="96" height="96" viewBox="0 0 96 96" fill="none" xmlns="http://www.w3.org/2000/svg"><path d="M64 40h21v5H64v-5zM52.29 28.72c-3.16 0-6.2-2.55-7.42-5.54-2 4.32-4.37 7.75-10.38 7.75h-6v8.86c0 7.34 4.37 13.29 12 13.29s12-5.95 12-13.29V28.72h-.2z" stroke="#00008F" stroke-width="2" stroke-linecap="round" stroke-linejoin="round"/><path d="M52.52 40.9A13.079 13.079 0 0058 29.82v-6.64a4.399 4.399 0 00-4.37-4.43A15.62 15.62 0 0039.91 11h-1.3A15.699 15.699 0 0023 26.8v2.72c0 4.28 2.18 9.16 5.46 11.38m4.39 9.52v5.98l-9.49 1.47A14.33 14.33 0 0011 71.93v5.17a4.45 4.45 0 003.68 4.35l12.1 2.27a73.999 73.999 0 0027.44 0l12.1-2.27A4.45 4.45 0 0070 77.1v-5.17a14.33 14.33 0 00-12.36-14.06l-9.49-1.47v-5.98" stroke="#00008F" stroke-width="2" stroke-linecap="round" stroke-linejoin="round"/><path d="M40.5 62.91l7.65-6.51 3.4.55-2.31 10.52-8.74-4.56zm0 0l-8.74 4.56-2.31-10.52 3.4-.55 7.65 6.51zm-4.37 2.35l2.18 4.42m0 0l-2.3 15.18m2.3-15.18h4.38m2.18-4.42l-2.18 4.42m0 0l2.3 15.18m-21.97-7.59v5.71m34.96-5.71v5.71" stroke="#00008F" stroke-width="2" stroke-linecap="round" stroke-linejoin="round"/></svg>
